X: 198
T:Celebrated Quadrell. JaW.197
M:6/8
Q:120
S:James Winder Ms, Lancashire, 1835-41
R:Quadrille
O:England
A:Wyresdale,Lancashire
H:1/8
Z:vmp.Chris Partington, Aug 2004
K:G
d|g2d d^cd|B2d G2B|c2e A2G|F2A DEF|!
G2G B2d|g2a d2e|c2B (Ad)F|G3 G2:|!
|:d|gfg d2g|b2g d2B|cBc A2f|a2f d2g|!
gfg d2g|b2g d2g|f2f ea^c|d3-d2:|]
